svg/image_area_close.svg

<svg xmlns="http://www.w3.org/2000/svg" viewBox="0 0 24 24"><path d="m12 23-4-4h8zm8-20a2 2 0 0 1 2 2v10a2 2 0 0 1-2 2H4a2 2 0 0 1-2-2V5a2 2 0 0 1 2-2zM5 14h14l-4.5-6-3.5 4.5-2.5-3z"/></svg>

<?xml version="1.0" encoding="UTF-8"?><!DOCTYPE svg PUBLIC "-//W3C//DTD SVG 1.1//EN" "http://www.w3.org/Graphics/SVG/1.1/DTD/svg11.dtd"><svg xmlns="http://www.w3.org/2000/svg" xmlns:xlink="http://www.w3.org/1999/xlink" version="1.1" id="mdi-image-area-close" width="24" height="24" viewBox="0 0 24 24"><path d="M12,23L8,19H16L12,23M20,3A2,2 0 0,1 22,5V15A2,2 0 0,1 20,17H4A2,2 0 0,1 2,15V5A2,2 0 0,1 4,3H20M5,14H19L14.5,8L11,12.5L8.5,9.5L5,14Z" /></svg>
